source/img/svg/logo-raif.svg

<svg viewBox="0 0 172 36" fill="none" xmlns="http://www.w3.org/2000/svg">
<path d="M36.1824 0H0V36H36.1824V0Z" fill="black"/>
<path d="M35.2193 1.06506H1.07077V35.0414H35.2193V1.06506Z" fill="#FFEE00"/>
<path d="M2.89028 28.1183L7.38632 32.5917L17.77 22.0473L28.5819 32.8047L33.078 28.3313L22.3731 17.6804L24.407 15.6567V11.3964L25.6916 10.3313V13.8461L27.2974 15.2307L32.2216 10.3313L33.8273 11.5029C34.7908 8.09461 29.3313 0.212958 24.8352 4.57982L19.5899 9.79876L20.6603 11.0769L17.9841 13.6331L15.522 11.0769L16.9136 9.90527L11.133 4.3668C6.85108 0.85201 2.35503 6.17745 2.24799 11.5029L3.85372 10.2248L8.6709 15.4437L10.3837 14.0591V10.8638L11.4542 11.7159V15.8698L13.5951 17.9999L2.89028 28.1183Z" fill="black"/>
<path d="M160.894 14.8047H164.427V10.7574H167.745V14.8047H171.278V4.7929H167.745V8.30769H164.427V4.7929H160.894V14.8047ZM139.377 7.66864C140.126 7.1361 141.197 6.81657 142.053 6.81657C142.482 6.81657 143.445 6.92308 143.445 7.77515C143.445 8.62722 142.589 8.62722 142.267 8.62722H140.555V10.8639H142.053C142.589 10.8639 143.552 10.8639 143.552 11.716C143.552 12.0355 143.338 12.6746 142.16 12.6746C140.876 12.6746 140.126 12.355 139.056 11.716L138.093 14.0592C140.019 15.1243 141.839 15.2308 142.589 15.2308C146.656 15.2308 147.192 12.8876 147.192 12.142C147.192 11.0769 146.549 10.0118 145.158 9.69231C146.014 9.26627 146.656 8.4142 146.656 7.34911C146.656 5.00592 144.194 4.47337 142.589 4.47337C141.197 4.47337 139.484 4.89941 138.414 5.43195L139.377 7.66864ZM131.563 3.40828C133.168 3.40828 134.881 2.76923 135.63 1.06509L133.275 0.213018C132.954 1.38462 131.991 1.49112 131.563 1.49112C131.134 1.49112 130.171 1.38462 129.85 0.213018L127.602 1.06509C128.351 2.87574 130.064 3.40828 131.563 3.40828ZM126.103 4.7929V14.9112H129.529L133.061 9.37278V14.9112H136.594V4.7929H133.168L129.636 10.2249V4.7929H126.103ZM102.445 12.6746V7.02959C101.268 7.02959 99.9833 7.88166 99.9833 9.79882C100.09 11.8225 101.268 12.6746 102.445 12.6746ZM105.55 7.02959V12.6746C106.727 12.6746 108.012 11.8225 108.012 9.90533C108.012 7.98817 106.727 7.02959 105.55 7.02959ZM102.231 19.2781V15.0178C100.09 15.0178 96.6648 14.1657 96.6648 9.79882C96.6648 5.43195 100.197 4.57988 102.231 4.57988V0.213018H105.764V4.57988C107.905 4.57988 111.33 5.43195 111.33 9.79882C111.33 14.1657 107.798 15.0178 105.764 15.0178V19.2781H102.231ZM86.4951 12.6746V7.02959C85.3176 7.02959 84.033 7.88166 84.033 9.79882C84.033 11.8225 85.2106 12.6746 86.4951 12.6746ZM89.5995 7.02959V12.6746C90.7771 12.6746 92.0617 11.8225 92.0617 9.90533C91.9546 7.98817 90.7771 7.02959 89.5995 7.02959ZM86.281 19.2781V15.0178C84.1401 15.0178 80.7145 14.1657 80.7145 9.79882C80.7145 5.43195 84.1401 4.57988 86.281 4.57988V0.213018H89.8136V4.57988C91.9546 4.57988 95.3802 5.43195 95.3802 9.79882C95.3802 14.1657 91.8476 15.0178 89.8136 15.0178V19.2781H86.281ZM73.9704 3.40828C75.5762 3.40828 77.289 2.76923 77.9313 1.06509L75.5762 0.213018C75.255 1.38462 74.2916 1.49112 73.8634 1.49112C73.4352 1.49112 72.4718 1.38462 72.1506 0.213018L69.9026 1.06509C70.6519 2.87574 72.3647 3.40828 73.9704 3.40828ZM68.4039 4.7929V14.9112H71.8295L75.3621 9.37278V14.9112H78.8947V4.7929H75.4691L71.9365 10.2249V4.7929H68.4039ZM46.6731 3.19527V6.60355H47.9576C49.7775 6.60355 49.8845 5.53846 49.8845 4.89941C49.8845 4.15385 49.6704 3.19527 47.9576 3.19527H46.6731ZM42.8193 14.8047V0H48.814C52.8819 0 54.0594 2.87574 54.0594 4.89941C54.0594 6.92308 52.8819 9.79882 48.9211 9.79882H46.7801V14.8047H42.8193ZM123.855 4.7929V14.9112H120.323V13.7396C119.68 14.6982 118.503 15.2308 117.325 15.2308C114.328 15.2308 112.294 12.6746 112.294 9.79882C112.294 6.92308 114.328 4.47337 117.325 4.47337C118.503 4.47337 119.68 4.89941 120.43 5.75148V4.7929H123.855ZM118.182 7.56213C116.683 7.56213 115.934 8.62722 115.934 9.79882C115.934 11.0769 116.79 12.0355 118.182 12.0355C119.573 12.0355 120.43 11.0769 120.43 9.79882C120.43 8.52071 119.573 7.56213 118.182 7.56213ZM66.1559 4.7929V14.9112H62.6233V13.7396C61.981 14.6982 60.8035 15.2308 59.6259 15.2308C56.6286 15.2308 54.5946 12.6746 54.5946 9.79882C54.5946 6.92308 56.6286 4.47337 59.6259 4.47337C60.8035 4.47337 61.981 4.89941 62.7303 5.75148V4.7929H66.1559ZM60.4823 7.56213C58.9836 7.56213 58.2343 8.62722 58.2343 9.79882C58.2343 11.0769 59.0907 12.0355 60.4823 12.0355C61.874 12.0355 62.7303 11.0769 62.7303 9.79882C62.7303 8.52071 61.874 7.56213 60.4823 7.56213ZM159.181 10.2249V10.6509H151.688C151.688 12.142 152.437 12.8876 153.936 12.8876C154.685 12.8876 155.22 12.6746 155.649 11.929H159.074C158.539 14.3787 156.291 15.4438 153.936 15.4438C150.617 15.4438 148.155 13.5266 148.155 10.1183C148.155 6.71006 150.403 4.68639 153.722 4.68639C157.147 4.57988 159.181 6.81657 159.181 10.2249ZM151.688 8.52071H155.756C155.542 7.56213 154.685 6.92308 153.722 6.92308C152.758 6.92308 151.902 7.45562 151.688 8.52071Z" fill="black"/>
<path d="M47.422 32.9112H48.0643C48.7065 32.9112 49.2418 32.9112 49.67 32.8047C50.0982 32.6981 50.4193 32.5916 50.7405 32.3786C51.0616 32.1656 51.2757 31.7396 51.3828 31.207C51.4898 30.6745 51.4898 30.3549 51.2757 30.1419C51.0616 29.9289 50.7405 29.7159 50.4193 29.7159C50.0982 29.7159 49.5629 29.6094 48.8136 29.6094H48.1713L47.422 32.9112ZM55.8788 21.0887L55.1295 24.3904H49.1347L48.7065 26.4141H50.9546C52.1321 26.4141 52.9885 26.6271 53.7378 26.9467C54.4872 27.2662 54.9154 27.9052 55.2365 28.5443C55.4506 29.2899 55.5576 30.1419 55.2365 31.207C55.0224 32.1656 54.5942 33.1242 53.9519 33.7632C53.3096 34.5088 52.5603 35.0413 51.7039 35.3609C50.8475 35.6804 49.777 35.8934 48.7065 35.8934H42.7118L45.9233 20.8757H55.8788V21.0887Z" fill="black"/>
<path d="M65.2996 25.6686L62.6234 30.4615H65.8349L65.2996 25.6686ZM60.9107 33.4438L59.3049 36H55.13L64.1221 20.9823H68.4041L70.8662 36H66.6913L66.2631 33.4438H60.9107Z" fill="black"/>
<path d="M84.1398 26.8402L85.3173 21.0887H89.2781L86.0667 36H82.1059L83.4975 29.929H77.8239L76.5394 36H72.5786L75.79 21.0887H79.6438L78.4662 26.8402H84.1398Z" fill="black"/>
<path d="M100.947 21.0887H105.871L98.3781 28.1183L103.195 36H98.0569L94.4173 29.5029L93.0256 36H89.0648L92.2763 21.0887H96.2371L94.8455 27.2662H94.9525L100.947 21.0887Z" fill="black"/>
</svg>

<svg width="172" height="36" fill="none" xmlns="http://www.w3.org/2000/svg"><path d="M36.182 0H0v36h36.182V0z" fill="#000"/><path d="M35.22 1.065H1.07v33.976h34.15V1.065z" fill="#FE0"/><path d="M2.89 28.118l4.496 4.474L17.77 22.047l10.812 10.758 4.496-4.474-10.705-10.65 2.034-2.024v-4.26l1.285-1.066v3.515l1.605 1.385 4.925-4.9 1.605 1.172c.964-3.408-4.496-11.29-8.992-6.923L19.59 9.799l1.07 1.278-2.676 2.556-2.462-2.556 1.392-1.172-5.781-5.538C6.851.852 2.355 6.177 2.248 11.503l1.606-1.278 4.817 5.219 1.713-1.385v-3.195l1.07.852v4.154L13.595 18 2.89 28.118zm158.004-13.313h3.533v-4.048h3.318v4.048h3.533V4.793h-3.533v3.515h-3.318V4.793h-3.533v10.012zm-21.517-7.136c.749-.533 1.82-.852 2.676-.852.429 0 1.392.106 1.392.958s-.856.852-1.178.852h-1.712v2.237h1.498c.536 0 1.499 0 1.499.852 0 .32-.214.959-1.392.959-1.284 0-2.034-.32-3.104-.959l-.963 2.343a9.449 9.449 0 004.496 1.172c4.067 0 4.603-2.343 4.603-3.089 0-1.065-.643-2.13-2.034-2.45.856-.426 1.498-1.278 1.498-2.343 0-2.343-2.462-2.876-4.067-2.876-1.392 0-3.105.426-4.175.959l.963 2.237zm-7.814-4.26c1.605 0 3.318-.64 4.067-2.344l-2.355-.852c-.321 1.172-1.284 1.278-1.712 1.278-.429 0-1.392-.106-1.713-1.278l-2.248.852c.749 1.81 2.462 2.343 3.961 2.343zm-5.46 1.384V14.91h3.426l3.532-5.538v5.538h3.533V4.793h-3.426l-3.532 5.432V4.793h-3.533zm-23.658 7.882V7.03c-1.177 0-2.462.852-2.462 2.769.107 2.024 1.285 2.876 2.462 2.876zm3.105-5.645v5.645c1.177 0 2.462-.853 2.462-2.77s-1.285-2.875-2.462-2.875zm-3.319 12.248v-4.26c-2.141 0-5.566-.852-5.566-5.22 0-4.366 3.532-5.218 5.566-5.218V.213h3.533V4.58c2.141 0 5.566.852 5.566 5.219s-3.532 5.219-5.566 5.219v4.26h-3.533zm-15.736-6.603V7.03c-1.177 0-2.462.852-2.462 2.769 0 2.024 1.178 2.876 2.462 2.876zM89.6 7.03v5.645c1.177 0 2.462-.853 2.462-2.77-.107-1.917-1.285-2.875-2.462-2.875zm-3.32 12.248v-4.26c-2.14 0-5.567-.852-5.567-5.22 0-4.366 3.426-5.218 5.567-5.218V.213h3.533V4.58c2.14 0 5.566.852 5.566 5.219s-3.532 5.219-5.566 5.219v4.26H86.28zM73.97 3.408c1.605 0 3.318-.639 3.96-2.343L75.576.213c-.321 1.172-1.284 1.278-1.713 1.278-.428 0-1.391-.106-1.712-1.278l-2.248.852c.749 1.81 2.462 2.343 4.067 2.343zm-5.567 1.385V14.91h3.425l3.533-5.538v5.538h3.533V4.793h-3.426l-3.532 5.432V4.793h-3.533zm-21.73-1.598v3.409h1.284c1.82 0 1.927-1.066 1.927-1.705 0-.745-.215-1.704-1.927-1.704h-1.285zm-3.855 11.61V0h5.995c4.068 0 5.245 2.876 5.245 4.9 0 2.023-1.177 4.899-5.138 4.899h-2.14v5.006h-3.962zm81.036-10.012V14.91h-3.532v-1.17c-.643.958-1.82 1.49-2.998 1.49-2.997 0-5.031-2.555-5.031-5.431s2.034-5.326 5.031-5.326c1.178 0 2.355.426 3.105 1.278v-.958h3.425zm-5.673 2.77c-1.499 0-2.248 1.064-2.248 2.236 0 1.278.856 2.237 2.248 2.237 1.391 0 2.248-.96 2.248-2.237 0-1.278-.857-2.237-2.248-2.237zm-52.026-2.77V14.91h-3.533v-1.17c-.642.958-1.82 1.49-2.997 1.49-2.997 0-5.031-2.555-5.031-5.431s2.034-5.326 5.03-5.326c1.178 0 2.356.426 3.105 1.278v-.958h3.426zm-5.674 2.77c-1.498 0-2.248 1.064-2.248 2.236 0 1.278.857 2.237 2.248 2.237 1.392 0 2.248-.96 2.248-2.237 0-1.278-.856-2.237-2.248-2.237zm98.699 2.662v.426h-7.493c0 1.491.749 2.237 2.248 2.237.749 0 1.284-.213 1.713-.959h3.425c-.535 2.45-2.783 3.515-5.138 3.515-3.319 0-5.781-1.917-5.781-5.326 0-3.408 2.248-5.432 5.567-5.432 3.425-.106 5.459 2.13 5.459 5.539zm-7.493-1.704h4.068c-.214-.959-1.071-1.598-2.034-1.598-.964 0-1.82.533-2.034 1.598zM47.422 32.911h.642c.642 0 1.178 0 1.606-.106.428-.107.75-.213 1.07-.426.322-.213.536-.64.643-1.172.107-.533.107-.852-.107-1.065-.214-.213-.536-.426-.857-.426-.32 0-.856-.107-1.605-.107h-.643l-.749 3.302zm8.457-11.822l-.75 3.301h-5.994l-.428 2.024h2.248c1.177 0 2.034.213 2.783.533.75.32 1.177.958 1.498 1.597.215.746.322 1.598 0 2.663-.214.959-.642 1.917-1.284 2.556-.642.746-1.392 1.278-2.248 1.598a8.83 8.83 0 01-2.998.532h-5.994l3.211-15.017h9.956v.213zm9.421 4.58l-2.677 4.793h3.212l-.535-4.793zm-4.39 7.775L59.306 36H55.13l8.992-15.018h4.282L70.866 36h-4.175l-.428-2.556h-5.352zm23.23-6.604l1.177-5.751h3.961L86.067 36h-3.961l1.392-6.071h-5.674L76.539 36h-3.96l3.211-14.911h3.854l-1.178 5.751h5.674zm16.807-5.751h4.924l-7.493 7.03L103.195 36h-5.138l-3.64-6.497L93.026 36h-3.961l3.211-14.911h3.961l-1.391 6.177h.106l5.995-6.177z" fill="#000"/></svg>
